X: 64
T: Our Hearts Are Set in the Heavens
N: Derived from pawnee64.krn
O: Oklahoma, U.S.A.
N: from Pawnee Music by Frances Densmore, 1926
Z: transcribed to **kern format by David Huron, August 2000
C: Skidi and Chaui Bands, 1919
L: 1/8
M: 3/4
Q: 1/4=88
K: Eb clef=treble
%%linebreak <none>
e2 [I:setbarnb 1]| 
B2(3(B G G) (G3/ ^F/) | 
G2G2B2 | 
G2(3(G ^F F) (G3/ E/) | 
E2E2E2 | 
D2(E< B,) (B,/ G,3/) | 
G,2G,2E2 | 
B,2(3(B, G, G,) | 
(B,3/ G,/) | 
G,2G,3G, | 
G,6 | 
G,4 :|]  



